X:2523
T:Hearty Boys of Ballymote, The
O:england
R:jig
N:Both in Edor and Ador
D:De Danann: Song for Ireland
D:Jerry Holland: The Fiddlesticks Collection
M:6/8
L:1/8
K:Edor
F|:GEE B,EE|~F3 DFA|GEE B,EE|FED E2F|
GEE B,EE|~F3 DFA|BAG BdB|1 AFD E2F:|2 AFD E2c||
|:~d3 dcB|AFD FGA|Bee ede|fed AFA|
~d3 dcB|AFD FGA|Bee BdB|1 AFD E2c:|2 AFD E2|
K:Ador
|B|:cAA EAA|~B3 GBd|cAA EAA|BAG A2B|
cAA EAA|~B3 GBd|edc ege|1 dBG A2B:|2 dBG A2f||
|:~g3 gfe|dBG Bcd|eaa aga|bag e2d|
~g3 gfe|dBG Bcd|eaa ege|1 dBG A2f:|2 dBG A2B||


